svgs/sharp-regular/rug.svg

<svg xmlns="http://www.w3.org/2000/svg" viewBox="0 0 640 512"><!--! Font Awesome Pro 6.6.0 by @fontawesome - https://fontawesome.com License - https://fontawesome.com/license (Commercial License) Copyright 2024 Fonticons, Inc. --><path d="M24 64L0 64l0 48 24 0 8 0 0 40-8 0L0 152l0 48 24 0 8 0 0 32-8 0L0 232l0 48 24 0 8 0 0 32-8 0L0 312l0 48 24 0 8 0 0 40-8 0L0 400l0 48 24 0 32 0 24 0 480 0 24 0 32 0 24 0 0-48-24 0-8 0 0-40 8 0 24 0 0-48-24 0-8 0 0-32 8 0 24 0 0-48-24 0-8 0 0-32 8 0 24 0 0-48-24 0-8 0 0-40 8 0 24 0 0-48-24 0-32 0-24 0L80 64 56 64 24 64zm56 48l48 0 0 288-48 0 0-40 0-48 0-32 0-48 0-32 0-48 0-40zM464 400l-288 0 0-288 288 0 0 288zm48 0l0-288 48 0 0 40 0 48 0 32 0 48 0 32 0 48 0 40-48 0z"/></svg>

<svg xmlns="http://www.w3.org/2000/svg" viewBox="0 0 640 512"><!--! Font Awesome Pro 6.4.0 by @fontawesome - https://fontawesome.com License - https://fontawesome.com/license (Commercial License) Copyright 2023 Fonticons, Inc. --><path d="M24 64H0v48H24h8v40H24 0v48H24h8v32H24 0v48H24h8v32H24 0v48H24h8v40H24 0v48H24 56 80 560h24 32 24V400H616h-8V360h8 24V312H616h-8V280h8 24V232H616h-8V200h8 24V152H616h-8V112h8 24V64H616 584 560 80 56 24zm56 48h48V400H80V360 312 280 232 200 152 112zM464 400H176V112H464V400zm48 0V112h48v40 48 32 48 32 48 40H512z"/></svg>
